src/assets/icons/vk.svg

<svg width="26" height="14" viewBox="0 0 26 14" fill="none" xmlns="http://www.w3.org/2000/svg">
<path d="M23.1737 9.62652C25.1957 11.3914 25.616 12.0214 25.6847 12.1289C26.5226 13.4352 24.7555 13.5943 24.7555 13.5943H21.0315C21.0315 13.5943 20.1249 13.6041 19.3503 13.0993C18.0876 12.2862 16.7652 10.7098 15.836 10.9835C15.0559 11.2127 15.0631 12.2489 15.0631 13.1349C15.0631 13.4521 14.7856 13.5943 14.1593 13.5943C13.5329 13.5943 13.2725 13.5943 12.995 13.5943C10.955 13.5943 8.74134 12.9189 6.53314 10.6502C3.4093 7.44313 0.669615 0.982714 0.669615 0.982714C0.669615 0.982714 0.507819 0.657472 0.684077 0.459305C0.883837 0.237145 1.42707 0.265581 1.42707 0.265581L5.03811 0.264693C5.03811 0.264693 5.37797 0.327786 5.62202 0.496628C5.82359 0.635256 5.93567 0.90007 5.93567 0.90007C5.93567 0.90007 6.54218 2.8693 7.31501 4.12494C8.8245 6.57581 9.52682 6.63802 10.0393 6.37409C10.7877 5.99198 10.5437 3.38649 10.5437 3.38649C10.5437 3.38649 10.5771 2.26769 10.1867 1.76916C9.88566 1.38349 9.30989 1.17821 9.05861 1.14622C8.85523 1.12045 9.19509 0.770329 9.62806 0.570385C10.2065 0.317123 10.9938 0.252252 12.3515 0.264693C13.4081 0.274468 13.7127 0.336673 14.1249 0.42998C15.3714 0.712567 15.0631 1.45814 15.0631 4.07607C15.0631 4.91495 14.9456 6.09417 15.5892 6.48517C15.8667 6.65401 16.8176 6.86018 18.5097 4.15871C19.3132 2.87729 19.9523 0.751667 19.9523 0.751667C19.9523 0.751667 20.0842 0.517955 20.2894 0.402432C20.4991 0.284243 20.4928 0.286909 20.7802 0.286909C21.0677 0.286909 23.9502 0.264693 24.5829 0.264693C25.2147 0.264693 25.8077 0.257584 25.9098 0.621926C26.0562 1.14534 25.4434 2.93861 23.8905 4.88473C21.3388 8.0785 21.0559 7.77992 23.1737 9.62652Z" fill="#36BA5F"/>
</svg>

<svg xmlns="http://www.w3.org/2000/svg" width="26" height="14" fill="none"><path fill="#36BA5F" d="M23.17 9.63c2.03 1.76 2.45 2.4 2.51 2.5.84 1.3-.92 1.46-.92 1.46h-3.73s-.9.01-1.68-.5c-1.26-.8-2.58-2.38-3.51-2.1-.78.22-.78 1.26-.78 2.14 0 .32-.27.46-.9.46h-1.17c-2.04 0-4.25-.67-6.46-2.94C3.41 7.45.67.98.67.98S.51.66.68.46c.2-.22.75-.2.75-.2h3.6s.35.07.6.24c.2.14.3.4.3.4s.61 1.97 1.39 3.22c1.5 2.46 2.2 2.52 2.72 2.25.75-.38.5-2.98.5-2.98s.04-1.12-.35-1.62c-.3-.39-.88-.6-1.13-.62-.2-.03.14-.38.57-.58.58-.25 1.36-.32 2.72-.3a6.9 6.9 0 0 1 1.77.16c1.25.28.94 1.03.94 3.65 0 .83-.11 2.01.53 2.4.28.17 1.23.38 2.92-2.32a17.3 17.3 0 0 0 1.44-3.4s.13-.24.34-.36c.2-.12.2-.11.49-.11l3.8-.03c.63 0 1.23 0 1.33.36.15.53-.47 2.32-2.02 4.26-2.55 3.2-2.83 2.9-.72 4.75Z"/></svg>
